!!!COM:	Bach, Johann Sebastian
!!!OMV:	Wo soll ich fliehen hin
!!!OTL:	Wo soll ich fliehen hin
**kern	**fb	**kern	**kern	**kern	**kern	**kern
*part6	*part6	*part5	*part4	*part3	*part2	*part1
*staff6	*	*staff5	*staff4	*staff3	*staff2	*staff1
*I"Continuo	*	*I"Voice	*I"Voice	*I"Voice	*I"Voice	*I"Flute
*I'Cont.	*	*I'V	*I'V	*I'V	*I'V	*I'Fl.
*clefF4	*	*clefF4	*clefGv2	*clefG2	*clefG2	*clefG2
*Trd0c0	*	*	*	*	*	*
*k[f#c#]	*	*k[f#c#]	*k[f#c#]	*k[f#c#]	*k[f#c#]	*k[f#c#]
*M4/4	*	*M4/4	*M4/4	*M4/4	*M4/4	*M4/4
4BB	.	4B	4d	4f#	4b	8bbL
.	.	.	.	.	.	8aaJ
=2	=2	=2	=2	=2	=2	=2
4E	.	4e	4e	4g	4b	8ggL
.	.	.	.	.	.	8ee
4AA#X	6 5	4A#X	4e	4f#	4cc#	8cc#
.	.	.	.	.	.	8eeJ
8BBL	.	8BL	4d	4f#	4dd	8bL
8AAnJ	.	8AnJ	.	.	.	8ff#J
4GG	6	4G	8c#L	4g	4ee	16bbLL
.	.	.	.	.	.	16aa#XJ
.	.	.	8BJ	.	.	8bbJ
=3	=3	=3	=3	=3	=3	=3
2.FF#;	#	2.F#;	2.A#X;	2.c#;	2.ff#;	2.ff#;
4E	6 #4| 2	4E	4A#	4f#	4ff#	4ff#
=4	=4	=4	=4	=4	=4	=4
4D	6	4D	4B	4g#X	4ff#	8bbL
.	.	.	.	.	.	8ee
4C#	#6\	4C#	4c#	4a#X	4ee	8dd
.	.	.	.	.	.	8cc#J
4BB	.	4BB	4d	4b	4dd	8ff#L
.	.	.	.	.	.	8dd
4E	6	4E	4gn	4cc#	4ee	8cc#
.	.	.	.	.	.	8bJ
=5	=5	=5	=5	=5	=5	=5
2.F#;	#	2.F#;	2.f#;	2.a#X;	2.cc#;	2.ff#;
4F#	.	4F#	4F#	4a#	4cc#	8ff#L
.	.	.	.	.	.	8eeJ
=6	=6	=6	=6	=6	=6	=6
4BB	.	4BB	4F#	4b	4dd	8ddL
.	.	.	.	.	.	8bb
4C#	6	4C#	4A	4e	4ee	8aa
.	.	.	.	.	.	8ggJ
8DL	.	8DL	4.A	4d	4ff#	8ff#L
8E	.	8E	.	.	.	8ee
8F#	.	8F#	.	4a	4ff#	8dd
8GJ	.	8GJ	8B	.	.	8dddJ
=7	=7	=7	=7	=7	=7	=7
!!linebreak:original
8AL	.	8AL	2c#	2a	2ee	8ccc#L
8BJ	.	8BJ	.	.	.	8ddd
8AL	.	8AL	.	.	.	8ccc#
8GJ	.	8GJ	.	.	.	8bbJ
8F#L	#	8F#L	4c#	4a#X	4ff#	8aa#XL
8G#XJ	.	8G#XJ	.	.	.	8bb
8A#XL	6	8A#XL	4c#	4f#	4ff#	8ccc#
8F#J	.	8F#J	.	.	.	8aa#J
=8	=8	=8	=8	=8	=8	=8
4B	5	4B	4B	8f#L	4dd	8bbL
.	#6\	.	.	8g#XJ	.	8dd
8AL	.	8AnL	4c#	4an	4ee	8cc#
8GJ	.	8GnJ	.	.	.	8bJ
8F#L	6	8F#L	4d	4a	4ff#	8aL
8EJ	.	8EJ	.	.	.	8gg
8DL	.	8DL	4d	4a	4ff#	8ff#
8F#J	.	8F#J	.	.	.	8dddJ
=9	=9	=9	=9	=9	=9	=9
8GL	6 5	8GL	4d	4b	2ee	8bbL
8EJ	.	8EJ	.	.	.	8gg
8AL	.	8AL	4c#	4a	.	8ee
8AAJ	.	8AAJ	.	.	.	8aaJ
4D;	.	4D;	4d;	4a;	4dd;	4ff#;
4d	.	4d	4d	4a	4ff#	[4aa
=10	=10	=10	=10	=10	=10	=10
4c#	.	4c#	4e	4a	4aa	8aaL]
.	.	.	.	.	.	8ee
4d	.	4d	8AL	4dd	4ff#	8ff#
.	.	.	8dJ	.	.	8aaJ
4A#X	6 5	4A#X	8eL	4cc#	4ff#	8ccc#L
.	.	.	8c#J	.	.	8ee
8BL	.	8BL	4d	4b	4ff#	8dd
8AnJ	.	8AnJ	.	.	.	8ff#J
=11	=11	=11	=11	=11	=11	=11
!!pagebreak:original
8G#XL	6	8G#XL	2d	2b	2ee	8bbL
8F#J	.	8F#J	.	.	.	8aa
8G#L	.	8G#L	.	.	.	8bb
8EJ	.	8EJ	.	.	.	8gg#XJ
4A;	.	4A;	4c#;	4e;	4ee;	4aa;
4Gn	6	4Gn	4B	4b	4ee	4bb
=12	=12	=12	=12	=12	=12	=12
8F#L	#	8F#L	4f#	4cc#	4ff#	8aa#XL
8EJ	.	8EJ	.	.	.	8bb
8DL	7 #5\	8DL	4A#X	4cc#	4ee	8ccc#
8C#J	.	8C#J	.	.	.	8aa#J
8BBL	.	8BBL	4B	4f#	4dd	8dddL
8AAJ	.	8AJ	.	.	.	8ff#J
8GGL	6	8GL	4B	4g	8eeL	[4bb
8FF#J	6 4	8F#J	.	.	8ddJ	.
=13	=13	=13	=13	=13	=13	=13
8EEL	6 5	8EL	8eL	4g	2cc#	16bbLL]
.	.	.	.	.	.	16ddd
8CC#J	.	8C#J	8dJ	.	.	16ccc#
.	.	.	.	.	.	16bbJJ
4FF#	#	8F#L	4c#	4f#	.	4aa#X
.	.	8FF#J	.	.	.	.
4BB;	#	4BB;	4d#X;	4f#;	4b;	4bb;
=||	=||	=||	=||	=||	=||	=||
*-	*-	*-	*-	*-	*-	*-
!!!system-decoration: s1,s2,s3,s4,s5,s6
